src/assets/changelogs.svg

<svg width="32" height="32" viewBox="0 0 32 32" fill="none" xmlns="http://www.w3.org/2000/svg">
<path d="M15.4326 3.7002C15.9223 3.75005 16.3047 4.1641 16.3047 4.66699C16.3044 5.16966 15.9222 5.58395 15.4326 5.63379L15.333 5.63867H14C11.4588 5.63867 9.6498 5.64071 8.27734 5.8252C6.93299 6.00599 6.15245 6.3456 5.58203 6.91602C5.01182 7.48646 4.67195 8.26705 4.49121 9.61133C4.30679 10.9838 4.30469 12.7929 4.30469 15.334V18C4.30469 20.5411 4.30673 22.3502 4.49121 23.7227C4.67201 25.067 5.01165 25.8476 5.58203 26.418C6.15246 26.9884 6.93297 27.328 8.27734 27.5088C9.6498 27.6933 11.4588 27.6953 14 27.6953H16.666C19.2072 27.6953 21.0162 27.6932 22.3887 27.5088C23.733 27.328 24.5136 26.9882 25.084 26.418L25.1885 26.3086C25.6964 25.7481 26.0053 24.9829 26.1748 23.7227C26.3593 22.3502 26.3613 20.5411 26.3613 18V16.667C26.3613 16.1306 26.7967 15.6955 27.333 15.6953C27.8695 15.6953 28.3047 16.1305 28.3047 16.667V18C28.3047 20.4862 28.3065 22.4495 28.1006 23.9814C27.8908 25.5413 27.4495 26.8005 26.458 27.792C25.4665 28.7833 24.2073 29.2249 22.6475 29.4346C21.1155 29.6404 19.1522 29.6387 16.666 29.6387H14C11.5137 29.6387 9.55053 29.6405 8.01856 29.4346C6.45867 29.2248 5.19956 28.7835 4.20801 27.792C3.21645 26.8005 2.7752 25.5413 2.56543 23.9814C2.35952 22.4495 2.36133 20.4862 2.36133 18V15.334C2.36133 12.8478 2.35957 10.8845 2.56543 9.35254C2.77514 7.7927 3.21669 6.53355 4.20801 5.54199C5.19955 4.55046 6.45869 4.10918 8.01856 3.89941C9.55053 3.6935 11.5137 3.69531 14 3.69531H15.333L15.4326 3.7002ZM20.7656 21.0332C21.2557 21.0828 21.6377 21.4969 21.6377 22C21.6377 22.5031 21.2557 22.9172 20.7656 22.9668L20.667 22.9717H10C9.4635 22.9717 9.02832 22.5365 9.02832 22C9.02832 21.4635 9.4635 21.0283 10 21.0283H20.667L20.7656 21.0332ZM15.4326 15.7002C15.9225 15.7499 16.3047 16.164 16.3047 16.667C16.3044 17.1698 15.9223 17.5841 15.4326 17.6338L15.333 17.6387H10C9.46366 17.6387 9.02858 17.2033 9.02832 16.667C9.02832 16.1305 9.4635 15.6953 10 15.6953H15.333L15.4326 15.7002ZM24 2.36133C27.1137 2.3615 29.6377 4.88725 29.6377 8.00098C29.6373 11.1143 27.1134 13.6385 24 13.6387C20.8866 13.6385 18.3618 11.1143 18.3613 8.00098C18.3613 4.88726 20.8863 2.36153 24 2.36133ZM24 4.30566C21.9593 4.30586 20.3047 5.96027 20.3047 8.00098C20.3051 10.0413 21.9596 11.6961 24 11.6963C26.0404 11.6961 27.6949 10.0413 27.6953 8.00098C27.6953 5.96026 26.0407 4.30584 24 4.30566Z" fill="url(#paint0_linear_16_1333)"/>
<defs>
<linearGradient id="paint0_linear_16_1333" x1="2.36133" y1="2.36133" x2="29.6387" y2="29.6377" gradientUnits="userSpaceOnUse">
<stop stop-color="#E2B0FF"/>
<stop offset="1" stop-color="#9F44D3"/>
</linearGradient>
</defs>
</svg>

<svg xmlns="http://www.w3.org/2000/svg" width="32" height="32" fill="none" viewBox="0 0 32 32"><path fill="url(#a)" d="M15.433 3.7a.972.972 0 0 1 0 1.934l-.1.005H14c-2.541 0-4.35.002-5.723.186-1.344.181-2.125.52-2.695 1.091-.57.57-.91 1.351-1.09 2.695-.185 1.373-.187 3.182-.187 5.723V18c0 2.541.002 4.35.186 5.723.181 1.344.52 2.125 1.091 2.695.57.57 1.351.91 2.695 1.09 1.373.185 3.182.187 5.723.187h2.666c2.541 0 4.35-.002 5.723-.186 1.344-.181 2.125-.52 2.695-1.091l.105-.11c.507-.56.816-1.325.986-2.585.184-1.373.186-3.182.186-5.723v-1.333a.972.972 0 0 1 1.944 0V18c0 2.486.002 4.45-.204 5.981-.21 1.56-.651 2.82-1.643 3.811-.991.991-2.25 1.433-3.81 1.643-1.532.205-3.496.204-5.982.204H14c-2.486 0-4.45.002-5.981-.204-1.56-.21-2.82-.651-3.811-1.643s-1.433-2.25-1.643-3.81C2.36 22.45 2.361 20.485 2.361 18v-2.666c0-2.486-.001-4.45.204-5.981.21-1.56.652-2.82 1.643-3.811.992-.992 2.25-1.433 3.81-1.643 1.533-.206 3.496-.204 5.982-.204h1.333zm5.333 17.333a.972.972 0 0 1 0 1.934l-.099.005H10a.972.972 0 0 1 0-1.944h10.667zM15.433 15.7a.972.972 0 0 1 0 1.934l-.1.005H10a.972.972 0 0 1 0-1.944h5.333zM24 2.361a5.64 5.64 0 0 1 0 11.278A5.64 5.64 0 0 1 24 2.36m0 1.945a3.696 3.696 0 1 0 0 7.39 3.696 3.696 0 0 0 0-7.39"/><defs><linearGradient id="a" x1="2.361" x2="29.639" y1="2.361" y2="29.638" gradientUnits="userSpaceOnUse"><stop stop-color="#e2b0ff"/><stop offset="1" stop-color="#9f44d3"/></linearGradient></defs></svg>
